X:1071
T:Solskenslåten
R:Gånglåt
Z:Klas Krantz, 2006
O:Leksand, Dalarna
S:efter Knis Karl Aronsson
L:1/16
M:2/4
K:G
e2 | "G"d2>B2 G2e2 | d2>c2 B2AB | "D7"c2cA DFAF | "G"G6G2 |
B2cB "C"A2A2 | "Em"g2ag "Bm"f2f2 | "A"e2e^c Acec |1 "D"d4z2 e2 :|2 "D"d4z2 Bd ||
|:"G"g2>d2 BGBd | g2fg "Am"a2>a2 | "C"g2ag "Bm"f2d2 | "Em"f2e2 e4 |
"G"d2ed "C"cBAB | "Am"cBce "Bm"d2B2 | "D7"c2cA DFAF |1 "G"G4z2 Bd :|2 "G"G4z2 |]
(:musicend:)

(:music:)
